komodo/Komodo-Biru/apps/scalable/baobab.svg

<?xml version="1.0" encoding="UTF-8" standalone="no"?>
<!-- Created with Inkscape (http://www.inkscape.org/) -->
<svg id="svg2" xmlns:rdf="http://www.w3.org/1999/02/22-rdf-syntax-ns#" xmlns="http://www.w3.org/2000/svg" height="96" width="96" version="1.1" xmlns:cc="http://creativecommons.org/ns#" xmlns:xlink="http://www.w3.org/1999/xlink" xmlns:dc="http://purl.org/dc/elements/1.1/">
 <defs id="defs4">
  <filter id="filter6279" color-interpolation-filters="sRGB">
   <feGaussianBlur id="feGaussianBlur6281" stdDeviation="0.8"/>
  </filter>
  <linearGradient id="linearGradient5801" y2="902.36" gradientUnits="userSpaceOnUse" x2="48" gradientTransform="translate(0 -.0000078516)" y1="1052.4" x1="48">
   <stop id="stop3175" style="stop-color:#e6e6e6" offset="0"/>
   <stop id="stop3189-3" style="stop-color:#c3c3c3" offset=".26003"/>
   <stop id="stop3187-3" style="stop-color:#b9b9b9" offset=".4918"/>
   <stop id="stop3191-8" style="stop-color:#c8c8c8" offset=".75914"/>
   <stop id="stop3177" style="stop-color:#e6e6e6" offset="1"/>
  </linearGradient>
  <linearGradient id="linearGradient5795" y2="60.151" gradientUnits="userSpaceOnUse" x2="78.93" gradientTransform="translate(-112 959.86)" y1=".21399" x1="44.325">
   <stop id="stop6701" style="stop-color:#f8b17e" offset="0"/>
   <stop id="stop6295" style="stop-color:#c6262e" offset="1"/>
  </linearGradient>
  <clipPath id="clipPath3951">
   <path id="path3953" d="m-0.10698 7.7588c-0.40837 0.40837-0.40599 1.0732 0.011206 1.4904l9.7943 9.7948c0.4172 0.4172 1.0821 0.41957 1.4904 0.01121l11.789-11.789c0.408-0.4086 0.406-1.0735-0.011-1.4907l-9.795-9.7942c-0.4172-0.41719-1.0821-0.41957-1.4904-0.011206l-11.789 11.789z" style="fill:#fff"/>
  </clipPath>
  <linearGradient id="linearGradient5797" y2="7.6923" gradientUnits="userSpaceOnUse" x2="11" y1="7.6923" x1="25.562">
   <stop id="stop3867-8" style="stop-color:#ec9013" offset="0"/>
   <stop id="stop3869-9" style="stop-color:#ebc514" offset="1"/>
  </linearGradient>
  <linearGradient id="linearGradient5799" y2="12.327" gradientUnits="userSpaceOnUse" x2="17.818" y1="7.2546" x1="12.84">
   <stop id="stop6713-9" style="stop-color:#8badea" offset="0"/>
   <stop id="stop6715-2" style="stop-color:#3b7caf" offset="1"/>
  </linearGradient>
  <linearGradient id="linearGradient5802" y2="8.2466" gradientUnits="userSpaceOnUse" x2="10.949" y1="8.3939" x1="20.287">
   <stop id="stop6721-4" style="stop-color:#8cab2a" offset="0"/>
   <stop id="stop6723-4" style="stop-color:#d7e866" offset="1"/>
  </linearGradient>
  <linearGradient id="linearGradient5804" y2="65.73" gradientUnits="userSpaceOnUse" x2="13.649" y1="45.405" x1="24.452">
   <stop id="stop3222-4" style="stop-color:#fff" offset="0"/>
   <stop id="stop3224-8" style="stop-color:#bfbfbf;stop-opacity:0" offset="1"/>
  </linearGradient>
  <clipPath id="clipPath3306">
   <rect id="rect3308" style="fill:#fff" rx="4" ry="4" height="60" width="72" y="12" x="12"/>
  </clipPath>
  <filter id="filter3642" width="1.2454" y="-.17991" x="-.12268" height="1.3598" color-interpolation-filters="sRGB">
   <feGaussianBlur id="feGaussianBlur3644" stdDeviation="3.178304"/>
  </filter>
 </defs>
 <metadata id="metadata7">
  <rdf:RDF>
   <cc:Work rdf:about="">
    <dc:format>image/svg+xml</dc:format>
    <dc:type rdf:resource="http://purl.org/dc/dcmitype/StillImage"/>
    <dc:title/>
   </cc:Work>
  </rdf:RDF>
 </metadata>
 <g id="layer1" transform="translate(0 -956.36)">
  <g id="g6591" transform="translate(2.861e-8 -.0000097370)">
   <rect id="rect9283" ry="5" style="filter:url(#filter6279)" rx="5" transform="translate(0 -.0000078516)" height="80" width="80" y="964.36" x="8"/>
   <rect id="rect9285" style="fill:url(#linearGradient5801)" rx="5" ry="5" height="80" width="80" y="964.36" x="8"/>
   <g id="g5787" transform="matrix(.73944 0 0 .87123 95.334 131.03)">
    <path id="rect3519" style="fill:url(#linearGradient5795)" d="m-96.875 970.86c-2.278 0-4.125 1.861-4.125 4.188v54.625c0 2.326 1.847 4.187 4.125 4.187h65.75c2.278 0 4.125-1.861 4.125-4.188v-54.625c0-2.326-1.847-4.187-4.125-4.187h-65.75z"/>
    <g id="g3873" transform="matrix(2.7886 2.7886 -2.7886 2.7886 -74.94 949.52)" clip-path="url(#clipPath3951)">
     <path id="path3841" d="m25.562 7a14.562 9 0 0 1 -1.951 4.5l-12.611-4.5z" style="fill:url(#linearGradient5797)" transform="matrix(0 .89272 -1.4444 -2.2377e-8 21.111 -2.8199)"/>
     <path id="path3845" d="m25.562 7a14.562 9 0 0 1 -10.793 8.693l-3.769-8.693z" style="fill:url(#linearGradient5799)" transform="matrix(.77311 -.44636 .72222 1.2509 -2.5598 3.1535)"/>
     <path id="path3847" d="m25.562 7a14.562 9 0 0 1 -4.2652 6.364l-10.297-6.364z" style="fill:url(#linearGradient5802)" transform="matrix(.63125 .63125 -1.0214 1.0214 11.206 -7.0933)"/>
    </g>
    <path id="path3295" style="opacity:.2;filter:url(#filter3642);fill:url(#linearGradient5804);fill-rule:evenodd" d="m64.467 70.746c-31.605-1.483-35.941-11.416-14.842-33.81-23.873 7.552-35.167 18.171-43.557 25.412-8.9114 7.758-0.5293 17.769 9.273 16.938 10.159-0.007 41.021-1.879 49.126-8.54z" clip-path="url(#clipPath3306)" transform="matrix(1.1166 0 0 1.1166 -112.27 950.61)"/>
   </g>
  </g>
 </g>
</svg>

<?xml version="1.0" encoding="UTF-8" standalone="no"?>
<!-- Created with Inkscape (http://www.inkscape.org/) -->

<svg
   xmlns:dc="http://purl.org/dc/elements/1.1/"
   xmlns:cc="http://creativecommons.org/ns#"
   xmlns:rdf="http://www.w3.org/1999/02/22-rdf-syntax-ns#"
   xmlns:svg="http://www.w3.org/2000/svg"
   xmlns="http://www.w3.org/2000/svg"
   xmlns:xlink="http://www.w3.org/1999/xlink"
   xmlns:sodipodi="http://sodipodi.sourceforge.net/DTD/sodipodi-0.dtd"
   xmlns:inkscape="http://www.inkscape.org/namespaces/inkscape"
   width="96"
   height="96"
   id="svg2"
   version="1.1"
   inkscape:version="0.48.1 r9760"
   sodipodi:docname="baobab.svg">
  <defs
     id="defs4">
    <filter
       color-interpolation-filters="sRGB"
       inkscape:collect="always"
       id="filter6279">
      <feGaussianBlur
         inkscape:collect="always"
         stdDeviation="0.8"
         id="feGaussianBlur6281" />
    </filter>
    <linearGradient
       inkscape:collect="always"
       xlink:href="#linearGradient3179"
       id="linearGradient5801"
       gradientUnits="userSpaceOnUse"
       gradientTransform="translate(0,-7.8515622e-6)"
       x1="48"
       y1="1052.3622"
       x2="48"
       y2="902.36218" />
    <linearGradient
       id="linearGradient3179"
       y2="8.6070995"
       gradientUnits="userSpaceOnUse"
       x2="88"
       y1="86.213997"
       x1="-1.8571">
      <stop
         id="stop3175"
         style="stop-color:#e6e6e6"
         offset="0" />
      <stop
         id="stop3189-3"
         style="stop-color:#c3c3c3"
         offset=".26003" />
      <stop
         id="stop3187-3"
         style="stop-color:#b9b9b9"
         offset=".49180" />
      <stop
         id="stop3191-8"
         style="stop-color:#c8c8c8"
         offset=".75914" />
      <stop
         id="stop3177"
         style="stop-color:#e6e6e6"
         offset="1" />
    </linearGradient>
    <linearGradient
       inkscape:collect="always"
       xlink:href="#linearGradient6699"
       id="linearGradient5795"
       gradientUnits="userSpaceOnUse"
       gradientTransform="translate(-112,959.86218)"
       x1="44.325001"
       y1="0.21399"
       x2="78.93"
       y2="60.151001" />
    <linearGradient
       id="linearGradient6699">
      <stop
         id="stop6701"
         style="stop-color:#f8b17e"
         offset="0" />
      <stop
         id="stop6295"
         style="stop-color:#c6262e"
         offset="1" />
    </linearGradient>
    <clipPath
       id="clipPath3951">
      <path
         inkscape:connector-curvature="0"
         id="path3953"
         style="fill:#ffffff"
         d="m -0.10698,7.7588 c -0.40837,0.40837 -0.40599,1.0732 0.011206,1.4904 l 9.7943,9.7948 c 0.4172,0.4172 1.0821,0.41957 1.4904,0.01121 l 11.789,-11.789 c 0.408,-0.4086 0.406,-1.0735 -0.011,-1.4907 l -9.795,-9.7942 c -0.4172,-0.41719 -1.0821,-0.41957 -1.4904,-0.011206 l -11.789,11.789 z" />
    </clipPath>
    <linearGradient
       inkscape:collect="always"
       xlink:href="#linearGradient3885-8"
       id="linearGradient5797"
       gradientUnits="userSpaceOnUse"
       x1="25.562"
       y1="7.6922998"
       x2="11"
       y2="7.6922998" />
    <linearGradient
       id="linearGradient3885-8"
       y2="7.6922998"
       gradientUnits="userSpaceOnUse"
       x2="11"
       y1="7.6922998"
       x1="25.562">
      <stop
         id="stop3867-8"
         style="stop-color:#ec9013"
         offset="0" />
      <stop
         id="stop3869-9"
         style="stop-color:#ebc514"
         offset="1" />
    </linearGradient>
    <linearGradient
       inkscape:collect="always"
       xlink:href="#linearGradient3887-7"
       id="linearGradient5799"
       gradientUnits="userSpaceOnUse"
       x1="12.84"
       y1="7.2546"
       x2="17.818001"
       y2="12.327" />
    <linearGradient
       id="linearGradient3887-7"
       y2="12.327"
       gradientUnits="userSpaceOnUse"
       x2="17.818001"
       y1="7.2546"
       x1="12.84">
      <stop
         id="stop6713-9"
         style="stop-color:#8badea"
         offset="0" />
      <stop
         id="stop6715-2"
         style="stop-color:#3b7caf"
         offset="1" />
    </linearGradient>
    <linearGradient
       inkscape:collect="always"
       xlink:href="#linearGradient3928"
       id="linearGradient5802"
       gradientUnits="userSpaceOnUse"
       x1="20.287001"
       y1="8.3938999"
       x2="10.949"
       y2="8.2466002" />
    <linearGradient
       id="linearGradient3928"
       y2="8.2466002"
       gradientUnits="userSpaceOnUse"
       x2="10.949"
       y1="8.3938999"
       x1="20.287001">
      <stop
         id="stop6721-4"
         style="stop-color:#8cab2a"
         offset="0" />
      <stop
         id="stop6723-4"
         style="stop-color:#d7e866"
         offset="1" />
    </linearGradient>
    <linearGradient
       inkscape:collect="always"
       xlink:href="#linearGradient3220-0"
       id="linearGradient5804"
       gradientUnits="userSpaceOnUse"
       x1="24.452"
       y1="45.404999"
       x2="13.649"
       y2="65.730003" />
    <linearGradient
       id="linearGradient3220-0">
      <stop
         id="stop3222-4"
         style="stop-color:#fff"
         offset="0" />
      <stop
         id="stop3224-8"
         style="stop-color:#bfbfbf;stop-opacity:0"
         offset="1" />
    </linearGradient>
    <clipPath
       id="clipPath3306">
      <rect
         id="rect3308"
         style="fill:#ffffff"
         rx="4"
         ry="4"
         height="60"
         width="72"
         y="12"
         x="12" />
    </clipPath>
    <filter
       id="filter3642"
       height="1.3598"
       width="1.2454"
       color-interpolation-filters="sRGB"
       y="-0.17991"
       x="-0.12268">
      <feGaussianBlur
         id="feGaussianBlur3644"
         stdDeviation="3.178304" />
    </filter>
  </defs>
  <sodipodi:namedview
     id="base"
     pagecolor="#ffffff"
     bordercolor="#666666"
     borderopacity="1.0"
     inkscape:pageopacity="0.0"
     inkscape:pageshadow="2"
     inkscape:zoom="3.959798"
     inkscape:cx="28.389459"
     inkscape:cy="57.490015"
     inkscape:document-units="px"
     inkscape:current-layer="layer1"
     showgrid="false"
     inkscape:window-width="1280"
     inkscape:window-height="725"
     inkscape:window-x="0"
     inkscape:window-y="25"
     inkscape:window-maximized="1" />
  <metadata
     id="metadata7">
    <rdf:RDF>
      <cc:Work
         rdf:about="">
        <dc:format>image/svg+xml</dc:format>
        <dc:type
           rdf:resource="http://purl.org/dc/dcmitype/StillImage" />
        <dc:title></dc:title>
      </cc:Work>
    </rdf:RDF>
  </metadata>
  <g
     inkscape:label="Layer 1"
     inkscape:groupmode="layer"
     id="layer1"
     transform="translate(0,-956.36217)">
    <g
       transform="translate(2.861023e-8,-9.737015e-6)"
       id="g6591">
      <rect
         transform="translate(0,-7.8515622e-6)"
         y="964.36218"
         x="8"
         height="80"
         width="80"
         id="rect9283"
         style="fill:#000000;fill-opacity:1;stroke:none;filter:url(#filter6279)"
         rx="5"
         ry="5" />
      <rect
         ry="5"
         rx="5"
         style="fill:url(#linearGradient5801);fill-opacity:1;stroke:none"
         id="rect9285"
         width="80"
         height="80"
         x="8"
         y="964.36218" />
      <g
         transform="matrix(0.73943861,0,0,0.87123028,95.333883,131.02945)"
         id="g5787">
        <path
           inkscape:connector-curvature="0"
           d="m -96.875,970.86218 c -2.278,0 -4.125,1.861 -4.125,4.188 v 54.62502 c 0,2.326 1.847,4.187 4.125,4.187 h 65.75 c 2.278,0 4.125,-1.861 4.125,-4.188 v -54.62502 c 0,-2.326 -1.847,-4.187 -4.125,-4.187 h -65.75 z"
           style="fill:url(#linearGradient5795)"
           id="rect3519" />
        <g
           clip-path="url(#clipPath3951)"
           transform="matrix(2.7886,2.7886,-2.7886,2.7886,-74.94,949.52418)"
           id="g3873">
          <path
             inkscape:connector-curvature="0"
             transform="matrix(0,0.89272,-1.4444,-2.2377e-8,21.111,-2.8199)"
             d="m 25.562,7 a 14.562,9 0 0 1 -1.951,4.5 L 11,7 z"
             style="fill:url(#linearGradient5797)"
             id="path3841" />
          <path
             inkscape:connector-curvature="0"
             transform="matrix(0.77311,-0.44636,0.72222,1.2509,-2.5598,3.1535)"
             d="M 25.562,7 A 14.562,9 0 0 1 14.769,15.693 L 11,7 z"
             style="fill:url(#linearGradient5799)"
             id="path3845" />
          <path
             inkscape:connector-curvature="0"
             transform="matrix(0.63125,0.63125,-1.0214,1.0214,11.206,-7.0933)"
             d="m 25.562,7 a 14.562,9 0 0 1 -4.2652,6.364 L 10.9998,7 z"
             style="fill:url(#linearGradient5802)"
             id="path3847" />
        </g>
        <path
           inkscape:connector-curvature="0"
           transform="matrix(1.1166,0,0,1.1166,-112.26673,950.61488)"
           clip-path="url(#clipPath3306)"
           d="M 64.467,70.746 C 32.862,69.263 28.526,59.33 49.625,36.936 25.752,44.488 14.458,55.107 6.068,62.348 -2.8434,70.106 5.5387,80.117 15.341,79.286 25.5,79.279 56.362,77.407 64.467,70.746 z"
           style="opacity:0.2;fill:url(#linearGradient5804);fill-rule:evenodd;filter:url(#filter3642)"
           id="path3295" />
      </g>
    </g>
  </g>
</svg>
